X: 174
T: No_96_Song_of_the_Deer_(b).krn
%%abc-version 2.0
%%abcx-abcm2ps-target-version 5.9.1 (29 Sep 2008)
%%abc-creator hum2abc beta
%%abcx-conversion-date 2020/08/10 18:54:57
%%gracespace 0 6 6
%%humdrum-veritas 256318977
%%humdrum-veritas-data 2582396668
%%linebreak <none>
%%barnumbers 0
L: 1/8
M: 2/4
%%staves {1 2}
V: 1 clef=bass
V: 2 clef=bass
K: Ab
[V:1] [K:clef=bass][M:2/4]DD CC | 
[V:2] [K:clef=bass][M:2/4]G,,G,, G,,G,, | 
[V:1] B,B, A,3/C/ | 
[V:2] G,,G,, G,,G,, | 
[V:1] CC B,B, ||  
[V:2] z4 ||  
[V:1] [M:3/4]A,A, F,F, E,3/A,/ | 
[V:2] [M:3/4]z6 | 
[V:1] A,F, E,F, E,E, ||  
[V:2] z6 ||  
[V:1] [M:2/4]E,>E, E,E, | 
[V:2] [M:2/4]z4 | 
[V:1] E,2E,E, ||  
[V:2] z4 ||  
[V:1] [M:3/4]E,4-E,3/E,/ ||  
[V:2] [M:3/4]z6 ||  
[V:1] [M:2/4]E,2E,E, | 
[V:2] [M:2/4]z4 | 
[V:1] E,4 |]  
[V:2] z4 |]  


